img/footer/twitter.svg

<svg width="30" height="30" viewBox="0 0 30 30" fill="none" xmlns="http://www.w3.org/2000/svg">
<path fill-rule="evenodd" clip-rule="evenodd" d="M25.3125 8.54667C24.5547 8.88322 23.7375 9.11081 22.8828 9.2125C23.7569 8.68952 24.4276 7.86026 24.7423 6.87241C23.9252 7.35786 23.0196 7.70894 22.0548 7.89779C21.2848 7.07579 20.1844 6.5625 18.9665 6.5625C16.6313 6.5625 14.7367 8.45709 14.7367 10.7935C14.7367 11.1253 14.7718 11.4473 14.8456 11.7572C11.3289 11.5804 8.21156 9.8977 6.12327 7.33607C5.75888 7.96316 5.55066 8.68952 5.55066 9.46431C5.55066 10.9316 6.2976 12.2269 7.43314 12.9859C6.73947 12.9654 6.08695 12.7729 5.51555 12.4581V12.5102C5.51555 14.5609 6.97432 16.2715 8.91128 16.6589C8.55537 16.7582 8.1825 16.8078 7.79511 16.8078C7.52273 16.8078 7.25639 16.7824 6.99975 16.7328C7.53725 18.4131 9.10014 19.6382 10.9524 19.6697C9.50327 20.8052 7.67889 21.4819 5.69714 21.4819C5.35575 21.4819 5.01799 21.4626 4.6875 21.4238C6.5603 22.6223 8.78417 23.3245 11.1739 23.3245C18.9581 23.3245 23.2133 16.8768 23.2133 11.2851C23.2133 11.101 23.2097 10.917 23.2012 10.7379C24.0281 10.1398 24.7471 9.3953 25.3125 8.54667Z" fill="white"/>
</svg>

<svg width="30" height="30" fill="none" xmlns="http://www.w3.org/2000/svg"><path fill-rule="evenodd" clip-rule="evenodd" d="M25.313 8.547a8.438 8.438 0 01-2.43.665 4.231 4.231 0 001.86-2.34 8.425 8.425 0 01-2.688 1.026 4.231 4.231 0 00-7.21 3.86 12.012 12.012 0 01-8.722-4.422 4.221 4.221 0 00-.572 2.128 4.23 4.23 0 001.882 3.522 4.229 4.229 0 01-1.917-.528v.052a4.232 4.232 0 003.394 4.15 4.236 4.236 0 01-1.911.074 4.23 4.23 0 003.952 2.937 8.49 8.49 0 01-5.255 1.812c-.341 0-.679-.02-1.01-.058a11.994 11.994 0 006.487 1.9c7.784 0 12.04-6.447 12.04-12.039 0-.184-.004-.368-.013-.547a8.59 8.59 0 002.111-2.191z" fill="#fff"/></svg>
